app/content/themes/irontheme/images/general/water-stopcock.svg

<svg width="53" height="53" viewBox="0 0 53 53" fill="none" xmlns="http://www.w3.org/2000/svg">
<g clip-path="url(#clip0)">
<path d="M40.8719 40.5132C40.2214 40.5132 39.6938 41.0407 39.6938 41.6912V44.9897C39.6938 45.6402 40.2214 46.1677 40.8719 46.1677C41.5224 46.1677 42.0499 45.6402 42.0499 44.9897V41.6912C42.0499 41.0407 41.5225 40.5132 40.8719 40.5132Z" fill="url(#paint0_linear)"/>
<path d="M40.8719 46.8745C40.2214 46.8745 39.6938 47.402 39.6938 48.0525V51.8222C39.6938 52.4727 40.2214 53.0003 40.8719 53.0003C41.5224 53.0003 42.0499 52.4727 42.0499 51.8222V48.0525C42.0499 47.402 41.5225 46.8745 40.8719 46.8745Z" fill="url(#paint1_linear)"/>
<path d="M40.8719 36.3901C40.2214 36.3901 39.6938 36.9177 39.6938 37.5682V38.7462C39.6938 39.3967 40.2214 39.9242 40.8719 39.9242C41.5224 39.9242 42.0499 39.3967 42.0499 38.7462V37.5682C42.0499 36.9177 41.5225 36.3901 40.8719 36.3901Z" fill="url(#paint2_linear)"/>
<path d="M44.9949 36.3901C44.3444 36.3901 43.8169 36.9177 43.8169 37.5682V38.7462C43.8169 39.3967 44.3444 39.9242 44.9949 39.9242C45.6454 39.9242 46.173 39.3967 46.173 38.7462V37.5682C46.173 36.9177 45.6455 36.3901 44.9949 36.3901Z" fill="url(#paint3_linear)"/>
<path d="M44.9949 40.7485C44.3444 40.7485 43.8169 41.2761 43.8169 41.9266V43.1046C43.8169 43.7551 44.3444 44.2826 44.9949 44.2826C45.6454 44.2826 46.173 43.7551 46.173 43.1046V41.9266C46.173 41.2761 45.6455 40.7485 44.9949 40.7485Z" fill="url(#paint4_linear)"/>
<path d="M44.9949 45.2251C44.3444 45.2251 43.8169 45.7526 43.8169 46.4031V47.5812C43.8169 48.2317 44.3444 48.7592 44.9949 48.7592C45.6454 48.7592 46.173 48.2317 46.173 47.5812V46.4031C46.173 45.7526 45.6455 45.2251 44.9949 45.2251Z" fill="url(#paint5_linear)"/>
<path d="M44.9949 49.4658C44.3444 49.4658 43.8169 49.9933 43.8169 50.6438V51.8219C43.8169 52.4724 44.3444 52.9999 44.9949 52.9999C45.6454 52.9999 46.173 52.4724 46.173 51.8219V50.6438C46.173 49.9933 45.6455 49.4658 44.9949 49.4658Z" fill="url(#paint6_linear)"/>
<path d="M36.8665 36.3901C36.216 36.3901 35.6885 36.9177 35.6885 37.5682V38.7462C35.6885 39.3967 36.216 39.9242 36.8665 39.9242C37.517 39.9242 38.0445 39.3967 38.0445 38.7462V37.5682C38.0445 36.9177 37.5171 36.3901 36.8665 36.3901Z" fill="url(#paint7_linear)"/>
<path d="M36.8665 40.7485C36.216 40.7485 35.6885 41.2761 35.6885 41.9266V43.1046C35.6885 43.7551 36.216 44.2826 36.8665 44.2826C37.517 44.2826 38.0445 43.7551 38.0445 43.1046V41.9266C38.0445 41.2761 37.5171 40.7485 36.8665 40.7485Z" fill="url(#paint8_linear)"/>
<path d="M36.8665 45.2251C36.216 45.2251 35.6885 45.7526 35.6885 46.4031V47.5812C35.6885 48.2317 36.216 48.7592 36.8665 48.7592C37.517 48.7592 38.0445 48.2317 38.0445 47.5812V46.4031C38.0445 45.7526 37.5171 45.2251 36.8665 45.2251Z" fill="url(#paint9_linear)"/>
<path d="M36.8665 49.4658C36.216 49.4658 35.6885 49.9933 35.6885 50.6438V51.8219C35.6885 52.4724 36.216 52.9999 36.8665 52.9999C37.517 52.9999 38.0445 52.4724 38.0445 51.8219V50.6438C38.0445 49.9933 37.5171 49.4658 36.8665 49.4658Z" fill="url(#paint10_linear)"/>
<path d="M46.2105 28.9682H45.5841V19.4944C45.5841 17.8694 44.75 15.6157 43.714 14.3636L43.049 13.6021C41.9664 12.294 39.7771 11.2978 38.0792 11.2978H29.4453V10.197C29.4453 8.70304 28.1999 7.5282 26.7058 7.5282H24.3797V4.46532H28.7328C29.3833 4.46532 29.9108 3.93792 29.9108 3.28729C29.9108 2.63667 29.3833 2.10926 28.7328 2.10926H24.3797V1.17803C24.3797 0.527404 23.8522 0 23.2017 0C22.5512 0 22.0237 0.527404 22.0237 1.17803V2.10914H17.6174C16.9669 2.10914 16.4394 2.63655 16.4394 3.28717C16.4394 3.9378 16.9669 4.4652 17.6174 4.4652H22.0237V7.52808H19.6445C18.1504 7.52808 16.9582 8.70293 16.9582 10.1969V11.2978H8.50132C6.4876 11.2978 4.82422 12.8789 4.82422 14.8925V17.8312C4.82422 19.8448 6.4876 21.4288 8.50132 21.4288H16.9579V22.0171C16.9579 23.5111 18.1502 24.7273 19.6443 24.7273H26.7055C28.1996 24.7273 29.445 23.5111 29.445 22.0171V21.4288H35.3352V28.9682H34.7784C33.6742 28.9682 32.7435 29.8639 32.7435 30.9682V33.1391C32.7435 34.2434 33.6742 35.0941 34.7784 35.0941H46.2104C47.3147 35.0941 48.1757 34.2434 48.1757 33.1391V30.9682C48.1757 29.8639 47.3148 28.9682 46.2105 28.9682ZM8.50132 19.0728C7.78684 19.0728 7.18028 18.5458 7.18028 17.8312V14.8925C7.18028 14.1781 7.78673 13.6538 8.50132 13.6538H16.9579V19.0728H8.50132ZM27.089 22.0178C27.089 22.213 26.9308 22.3712 26.7356 22.3712H19.6674C19.4722 22.3712 19.314 22.213 19.314 22.0178V10.2375C19.314 10.0423 19.4722 9.88414 19.6674 9.88414H26.7356C26.9308 9.88414 27.089 10.0423 27.089 10.2375V22.0178ZM45.8196 32.7379H35.0996V31.3243H35.6499C36.7916 31.3243 37.6912 30.6206 37.6912 29.6913V21.1298C37.6912 20.0256 36.7542 19.0729 35.6499 19.0729H29.445V13.6539H38.0789C39.0835 13.6539 40.5819 14.3303 41.2225 15.1043L41.8988 15.88C42.5949 16.7213 43.2281 18.4026 43.2281 19.4944V30.0569C43.2281 30.0716 43.2072 30.0858 43.2078 30.1003C43.2074 30.1148 43.1944 30.1303 43.1944 30.1449C43.1944 30.7955 43.7106 31.3244 44.3612 31.3244H45.8199V32.7379H45.8196Z" fill="url(#paint11_linear)"/>
</g>
<defs>
<linearGradient id="paint0_linear" x1="42.0499" y1="43.3405" x2="39.6938" y2="43.3405" gradientUnits="userSpaceOnUse">
<stop stop-color="#2063B1"/>
<stop offset="1" stop-color="#3CBAFC"/>
</linearGradient>
<linearGradient id="paint1_linear" x1="42.0499" y1="49.9374" x2="39.6938" y2="49.9374" gradientUnits="userSpaceOnUse">
<stop stop-color="#2063B1"/>
<stop offset="1" stop-color="#3CBAFC"/>
</linearGradient>
<linearGradient id="paint2_linear" x1="42.0499" y1="38.1572" x2="39.6938" y2="38.1572" gradientUnits="userSpaceOnUse">
<stop stop-color="#2063B1"/>
<stop offset="1" stop-color="#3CBAFC"/>
</linearGradient>
<linearGradient id="paint3_linear" x1="46.173" y1="38.1572" x2="43.8169" y2="38.1572" gradientUnits="userSpaceOnUse">
<stop stop-color="#2063B1"/>
<stop offset="1" stop-color="#3CBAFC"/>
</linearGradient>
<linearGradient id="paint4_linear" x1="46.173" y1="42.5156" x2="43.8169" y2="42.5156" gradientUnits="userSpaceOnUse">
<stop stop-color="#2063B1"/>
<stop offset="1" stop-color="#3CBAFC"/>
</linearGradient>
<linearGradient id="paint5_linear" x1="46.173" y1="46.9921" x2="43.8169" y2="46.9921" gradientUnits="userSpaceOnUse">
<stop stop-color="#2063B1"/>
<stop offset="1" stop-color="#3CBAFC"/>
</linearGradient>
<linearGradient id="paint6_linear" x1="46.173" y1="51.2329" x2="43.8169" y2="51.2329" gradientUnits="userSpaceOnUse">
<stop stop-color="#2063B1"/>
<stop offset="1" stop-color="#3CBAFC"/>
</linearGradient>
<linearGradient id="paint7_linear" x1="38.0445" y1="38.1572" x2="35.6885" y2="38.1572" gradientUnits="userSpaceOnUse">
<stop stop-color="#2063B1"/>
<stop offset="1" stop-color="#3CBAFC"/>
</linearGradient>
<linearGradient id="paint8_linear" x1="38.0445" y1="42.5156" x2="35.6885" y2="42.5156" gradientUnits="userSpaceOnUse">
<stop stop-color="#2063B1"/>
<stop offset="1" stop-color="#3CBAFC"/>
</linearGradient>
<linearGradient id="paint9_linear" x1="38.0445" y1="46.9921" x2="35.6885" y2="46.9921" gradientUnits="userSpaceOnUse">
<stop stop-color="#2063B1"/>
<stop offset="1" stop-color="#3CBAFC"/>
</linearGradient>
<linearGradient id="paint10_linear" x1="38.0445" y1="51.2329" x2="35.6885" y2="51.2329" gradientUnits="userSpaceOnUse">
<stop stop-color="#2063B1"/>
<stop offset="1" stop-color="#3CBAFC"/>
</linearGradient>
<linearGradient id="paint11_linear" x1="48.1757" y1="17.547" x2="4.82422" y2="17.547" gradientUnits="userSpaceOnUse">
<stop stop-color="#2063B1"/>
<stop offset="1" stop-color="#3CBAFC"/>
</linearGradient>
<clipPath id="clip0">
<rect width="53" height="53" fill="white"/>
</clipPath>
</defs>
</svg>

<svg width="53" height="53" viewBox="0 0 53 53" fill="none" xmlns="http://www.w3.org/2000/svg"><g clip-path="url(#clip0)"><path d="M40.872 40.513c-.65 0-1.178.528-1.178 1.178v3.299a1.178 1.178 0 002.356 0v-3.3c0-.65-.527-1.178-1.178-1.178z" fill="url(#paint0_linear)"/><path d="M40.872 46.874c-.65 0-1.178.528-1.178 1.178v3.77a1.178 1.178 0 002.356 0v-3.77c0-.65-.527-1.178-1.178-1.178z" fill="url(#paint1_linear)"/><path d="M40.872 36.39c-.65 0-1.178.528-1.178 1.178v1.178a1.178 1.178 0 002.356 0v-1.178c0-.65-.527-1.178-1.178-1.178z" fill="url(#paint2_linear)"/><path d="M44.995 36.39c-.65 0-1.178.528-1.178 1.178v1.178a1.178 1.178 0 002.356 0v-1.178c0-.65-.528-1.178-1.178-1.178z" fill="url(#paint3_linear)"/><path d="M44.995 40.748c-.65 0-1.178.528-1.178 1.179v1.178a1.178 1.178 0 002.356 0v-1.178c0-.65-.528-1.178-1.178-1.178z" fill="url(#paint4_linear)"/><path d="M44.995 45.225c-.65 0-1.178.528-1.178 1.178v1.178a1.178 1.178 0 002.356 0v-1.178c0-.65-.528-1.178-1.178-1.178z" fill="url(#paint5_linear)"/><path d="M44.995 49.466c-.65 0-1.178.527-1.178 1.178v1.178a1.178 1.178 0 002.356 0v-1.178c0-.65-.528-1.178-1.178-1.178z" fill="url(#paint6_linear)"/><path d="M36.867 36.39c-.651 0-1.178.528-1.178 1.178v1.178a1.178 1.178 0 002.355 0v-1.178c0-.65-.527-1.178-1.177-1.178z" fill="url(#paint7_linear)"/><path d="M36.867 40.748c-.651 0-1.178.528-1.178 1.179v1.178a1.178 1.178 0 002.355 0v-1.178c0-.65-.527-1.178-1.177-1.178z" fill="url(#paint8_linear)"/><path d="M36.867 45.225c-.651 0-1.178.528-1.178 1.178v1.178a1.178 1.178 0 002.355 0v-1.178c0-.65-.527-1.178-1.177-1.178z" fill="url(#paint9_linear)"/><path d="M36.867 49.466c-.651 0-1.178.527-1.178 1.178v1.178a1.178 1.178 0 002.355 0v-1.178c0-.65-.527-1.178-1.177-1.178z" fill="url(#paint10_linear)"/><path d="M46.21 28.968h-.626v-9.474c0-1.625-.834-3.878-1.87-5.13l-.665-.762c-1.083-1.308-3.272-2.304-4.97-2.304h-8.634v-1.101c0-1.494-1.245-2.669-2.74-2.669H24.38V4.465h4.353a1.178 1.178 0 000-2.356H24.38v-.931a1.178 1.178 0 00-2.356 0v.931h-4.407a1.178 1.178 0 000 2.356h4.407v3.063h-2.38a2.658 2.658 0 00-2.686 2.669v1.1H8.501c-2.013 0-3.677 1.582-3.677 3.595v2.94c0 2.013 1.664 3.597 3.677 3.597h8.457v.588c0 1.494 1.192 2.71 2.686 2.71h7.062c1.494 0 2.739-1.216 2.739-2.71v-.588h5.89v7.54h-.557c-1.104 0-2.035.895-2.035 2v2.17c0 1.104.931 1.955 2.035 1.955H46.21c1.105 0 1.966-.85 1.966-1.955v-2.17c0-1.105-.861-2-1.965-2zM8.502 19.073c-.714 0-1.32-.527-1.32-1.242v-2.938c0-.715.606-1.24 1.32-1.24h8.457v5.42H8.5zm18.588 2.945a.353.353 0 01-.353.353h-7.069a.353.353 0 01-.353-.353v-11.78c0-.196.158-.354.353-.354h7.069c.195 0 .353.158.353.354v11.78zm18.73 10.72H35.1v-1.414h.55c1.143 0 2.042-.703 2.042-1.633V21.13c0-1.104-.937-2.057-2.041-2.057h-6.205v-5.42h8.634c1.005 0 2.503.677 3.143 1.451l.677.776c.696.841 1.33 2.523 1.33 3.614v10.563c0 .015-.022.029-.021.043 0 .015-.014.03-.014.045 0 .65.517 1.18 1.167 1.18h1.459v1.413z" fill="url(#paint11_linear)"/></g><defs><linearGradient id="paint0_linear" x1="42.05" y1="43.34" x2="39.694" y2="43.34" gradientUnits="userSpaceOnUse"><stop stop-color="#2063B1"/><stop offset="1" stop-color="#3CBAFC"/></linearGradient><linearGradient id="paint1_linear" x1="42.05" y1="49.937" x2="39.694" y2="49.937" gradientUnits="userSpaceOnUse"><stop stop-color="#2063B1"/><stop offset="1" stop-color="#3CBAFC"/></linearGradient><linearGradient id="paint2_linear" x1="42.05" y1="38.157" x2="39.694" y2="38.157" gradientUnits="userSpaceOnUse"><stop stop-color="#2063B1"/><stop offset="1" stop-color="#3CBAFC"/></linearGradient><linearGradient id="paint3_linear" x1="46.173" y1="38.157" x2="43.817" y2="38.157" gradientUnits="userSpaceOnUse"><stop stop-color="#2063B1"/><stop offset="1" stop-color="#3CBAFC"/></linearGradient><linearGradient id="paint4_linear" x1="46.173" y1="42.516" x2="43.817" y2="42.516" gradientUnits="userSpaceOnUse"><stop stop-color="#2063B1"/><stop offset="1" stop-color="#3CBAFC"/></linearGradient><linearGradient id="paint5_linear" x1="46.173" y1="46.992" x2="43.817" y2="46.992" gradientUnits="userSpaceOnUse"><stop stop-color="#2063B1"/><stop offset="1" stop-color="#3CBAFC"/></linearGradient><linearGradient id="paint6_linear" x1="46.173" y1="51.233" x2="43.817" y2="51.233" gradientUnits="userSpaceOnUse"><stop stop-color="#2063B1"/><stop offset="1" stop-color="#3CBAFC"/></linearGradient><linearGradient id="paint7_linear" x1="38.044" y1="38.157" x2="35.688" y2="38.157" gradientUnits="userSpaceOnUse"><stop stop-color="#2063B1"/><stop offset="1" stop-color="#3CBAFC"/></linearGradient><linearGradient id="paint8_linear" x1="38.044" y1="42.516" x2="35.688" y2="42.516" gradientUnits="userSpaceOnUse"><stop stop-color="#2063B1"/><stop offset="1" stop-color="#3CBAFC"/></linearGradient><linearGradient id="paint9_linear" x1="38.044" y1="46.992" x2="35.688" y2="46.992" gradientUnits="userSpaceOnUse"><stop stop-color="#2063B1"/><stop offset="1" stop-color="#3CBAFC"/></linearGradient><linearGradient id="paint10_linear" x1="38.044" y1="51.233" x2="35.688" y2="51.233" gradientUnits="userSpaceOnUse"><stop stop-color="#2063B1"/><stop offset="1" stop-color="#3CBAFC"/></linearGradient><linearGradient id="paint11_linear" x1="48.176" y1="17.547" x2="4.824" y2="17.547" gradientUnits="userSpaceOnUse"><stop stop-color="#2063B1"/><stop offset="1" stop-color="#3CBAFC"/></linearGradient><clipPath id="clip0"><path fill="#fff" d="M0 0h53v53H0z"/></clipPath></defs></svg>
